X:348
T:Night of the Chromanids
M:C|
L:1/8
C:© Paul Gitlitz 2013
K:Cm
"Eb6"c2 g2 "D7"^f4|"G7"fefe fg3|"Eb6"c2g2 "D7"^f4|"Eb7"fge2"G7"d3=B|!
"Cdim7/Eb"c2g2 "D7/F#"^f4|"G7"fefe fg3|"Cm/A"c'2g2^f2g2|"G7"ed3"Cm"c4:|!
"Ab"Acde fedc|Acde "Cdim7"^fedc|"G"G=Bdf  gfdf|"A#7"bagf efed|!
"Ab"Acde fedc|Acde "Cdim7"^fedc|"G"G=Bdf gfdf|"D7"def^f "G7"g2G2|!
"Ab"Acde fedc|Acde "Cdim7"^fedc|"G"G=Bdf gfdf|"G"Gde^f edc=B|!
"Ab"Acde fedc|"Ab/B"Acde "Cdim7/Eb"^fedc|"Cdim/A"Gcde "G7/D"^fgab|"Cm"c'ged c4|]
